X: 1291
T: The Whigs of Fife.   a Reel.
%R: reel
B: Niel Gow & Sons "Complete Repository" v.1 p.29 #1
Z: 2021 John Chambers <jc:trillian.mit.edu>
M: C|
L: 1/8
K: F
% - - - - - - - - - -
% Voice 1 formatted for compactness and proofreading.
V: 1 staves=2
f |\
cF F/F/F AGGA | cF F/F/F Tf>gag | fF F/F/F AGGA | FDE^C D3 :| (e | f)ccf gdde | fccd Tf>gag |
fccf gdde | f/g/a (Tg>f) d3e || fccf gdde | fccd Tf>gag | fccf gdde | (f/g/a) Tg>f ~d3 |]
% - - - - - - - - - -
% Voice 2 preserves the book's staff layout.
V: 2 clef=bass middle=d
z |\
f2f2 c2c2 | f2f2 a2g2 | f2f2 c2^c2 | d2A2 D3 :| z | f2f2 g2g2 | f2F2 A2B2 |
A2A2 B3^c | d2A2 d2d2 || f2f2 g2g2 | f2F2 A2B2 | A2A2 B3^c | d2A2 D2D |]


